X: 31
T:Oyster Girl
M:6/8
L:1/8
Q:1/8=120
K:G
B2 c|ded B2 G|A2 F DEF|GFG BAB|d2 c A3|ded Bdg|f2 e c2 e|d
ed cBA|G3 G2||
d|Bcd Bcd|e2 c e2 c|ABc ABc|d2 B d2 B|ded Bdg|f2 e c2 e|de
d cBA|G3 G2||
